modules/themify-icons/icons/layout-list-thumb-alt.svg

<?xml version="1.0" encoding="utf-8"?>
<!-- Generated by IcoMoon.io -->
<!DOCTYPE svg PUBLIC "-//W3C//DTD SVG 1.1//EN" "http://www.w3.org/Graphics/SVG/1.1/DTD/svg11.dtd">
<svg version="1.1" xmlns="http://www.w3.org/2000/svg" xmlns:xlink="http://www.w3.org/1999/xlink" width="17" height="17" viewBox="0 0 17 17">
<g>
</g>
	<path d="M15 5h-9v-1h9v1zM6 6v1h11v-1h-11zM0 8h5v-5h-5v5zM15 11h-9v1h9v-1zM6 14h11v-1h-11v1zM0 15h5v-5h-5v5z" fill="#000000" />
</svg>

<svg xmlns="http://www.w3.org/2000/svg" width="17" height="17" viewBox="0 0 17 17"><path d="M15 5H6V4h9v1zM6 6v1h11V6H6zM0 8h5V3H0v5zm15 3H6v1h9v-1zm-9 3h11v-1H6v1zm-6 1h5v-5H0v5z"/></svg>
